X:0
T:Devon(Harmony)
C:Tim Pillinger
M:4/4
L:1/8
K:G
V:T1
V:T2
[V:T1] B2 e2 efge | efed B2B2 | c3 B ABcA | BcBG E4 |
[V:T2] efgf e2 B2 | cBAc B4   | c3 B ABcA | BcBG E4 |
[V:T1] B2 e2 efge | efed B2B2 | c3 B ABcA | BcBG E4 |
[V:T2] efgf e2 B2 | cBAc B4   | B,EDE B,EDE | G2 E2 E4 |